!!!ONB: MCCC : IAD0035_10 : Extracted Monophonic Melody
!!!COM: Dvořák, Antonín
!!!OPR: Legends
!!!OMV: 10
!!!SCT: Op.59 ; B.117 (piano duet), B.122 (orchestra)
!!!ODT: 1881///
**kern
*staff1
=1
*clefG2
*k[b-e-]
*B-:
*M4/8
8dd-
8cc
8b-
8cc
=2
8dd-
8b-
4cc
=3
8dd-
8cc
4b-
=4
2a-
=5
8b-
8a-
8f#
8a-
=6
8b-
8f#
4a-
=7
8b-
8a-
4f#
=8
2f
=9
8ddd-
8ccc
8bb-
8ccc
=10
8ddd-
8bb-
4ccc
=11
8ddd-
8ccc
4bb-
=12
2ff
=13
8ddd-
8ccc
8bb-
8ccc
=14
8ddd-
4bb-
16ccc
16ddd-
=15
8ddd
8ccc#
8bb
8ccc#
=16
8ddd
4bb
16ccc#
16ddd
=17
8eee-
8ddd
8ccc
8ddd
=18
4eee-
4eee[
=19
8eee]
8ddd-
8ddd-
8bb[
=20
8bb]
8bb-
4aa
=21
4bb-
8ff#[
16ff#]
16ee-
=22
8dd-
4ff
16ff
16fff
=23
4ddd
8.fff
16fff
=24
4ddd
8.fff
16fff
=25
8ddd
16dd
16ddd
8ccc
16cc
16ccc
=26
8bb-
16b-
16bb-
8aa
16a
16aa
=27
4gg
8.bb-
16bb-
=28
4gg
8.bb-
16bb-
=29
8.gg
16gg
8.ff
16ff
=30
8.ee-
16ee-
8.dd
16dd
=31
4cc
8.dd
16b-
=32
4cc
8.dd
16b-
=33
8cc
8dd
8ee-
8ff
=34
8gg
8aa
8bb-
16ccc
16ddd-
=35
8ddd
8fff[
16fff]
16ccc
16ddd
16eee-
=36
8fff
16bbb-
16ggg
16fff
16ccc
16ddd
16eee-
=37
8.fff
16fff
8.fff#
16fff#
=38
8.ggg
16ggg
8.aaa
16fff
=39
8ccc
8ggg
8.aaa
16fff
=40
8ccc
8ggg
8.aaa
16fff
=41
4ccc
8ccc
16aa
16ccc
=42
4gg
8ccc
16aa
16ccc
=43
4gg
8bb-
16ff
16bb-
=44
4ee-
8ff#
16dd-
16ff#
=45
4ee#
8ff#
16dd-
16ff#
=46
4ee#
8ff#
16dd-
16ff#
=47
8ff
16cc
16ff#
8ff
8r
=48
2r
=49
2r
=50
2r
=51
8fff
8fff
8bbb-
8bbb-
=52
8bbb-
8bbb-[
8bbb-]
8aaa-[
=53
16aaa-]
16aaa-
16ggg
16ggg
8ggg
8ggg
=54
8aaa-
8aaa-
8aaa-
16eee-]
16fff
=55
8fff#
8fff#
8fff#
16fff#
16fff#
=56
8fff#
8fff#
8fff#
16fff
16eee-
=57
8bb-
8bb-
16bb-
16bb-
16ccc
16ddd-
=58
8ccc
8ccc
8ccc
16ccc
16ccc
=59
8ddd-
8ccc
8bb-
8ccc
=60
8ddd-
8bb-
4ccc
=61
8ddd-
8ccc
4bb-
=62
2ff
=63
8ddd-
8ccc
8bb-
8ccc
=64
8ddd-
4bb-
16ccc
16ddd-
=65
8ddd
8ccc#
8bb
8ccc#
=66
8ddd
4bb
16ccc#
16ddd
=67
8eee-
8ddd
8ccc
8ddd
=68
4eee-
4eee[
=69
8eee]
8ddd-
8ddd-
8bb[
=70
8bb]
8bb-
4aa
=71
4bb-
8ff#[
16ff#]
16ee-
=72
8dd-
4ff
16ff#
16fff
=73
4ddd
8.fff
16fff
=74
4ddd
8.fff
16fff
=75
4fff
16fff
16ccc
16ddd
16eee-
=76
8fff
16bbb-
16ggg
16fff
16ccc
16ddd
16eee-
=77
8fff
8ddd
8.fff
16ccc
=78
16ddd
16fff
16bbb-
16ggg
16fff
16ccc
16ddd
16eee-
=79
8fff
16ddd
16bbb-
8.fff
16ccc
=80
8ddd
8bb-
8.ff
16ff
=81
16ddd
16ccc
16bb-
16ccc
16ddd
16bb-
8ccc
=82
4r
64r
64ccc
64bb-
64ccc
64bb-
64ccc
64bb-
64ccc
64bb-
64ccc
64bb-
64ccc
32aa
32bb-
=83
16ccc
16bb-
16aa-
16bb-
16ccc
16aa-
8bb-
=84
8ccc
8bb-
64aa-
64bb-
64aa-
64bb-
64aa-
64bb-
64aa-
64bb-
64aa-
64bb-
64aa-
64bb-
32gg
32aa-
=85
8bb-
8aa-
64gg
64aa-
64gg
64aa-
64gg
64aa-
64gg
64aa-
64gg
64aa-
64gg
64aa-
32ff#
32gg
=86
8bb-
8r
8r
8fff
=87
16bb-
16cc
16b-
16cc
16dd
16b-
8fff
=88
8ddd
8bb-
64ccc
64ddd
64ccc
64ddd
64ccc
64ddd
64ccc
64ddd
64ccc
64ddd
64ccc
64ddd
48eee-
48ddd
48ccc
=89
8bb-
8r
4r
=90
8r
8aa
8gg
8ee-
=91
4ee-[
16ee-]
16dd
24cc
24dd
24ee-
=92
2dd
==
*-
